X:1
T: Lady Baird's New Reel
C:R. Mackintosh
R:Reel
Q: 232
K:Bm
M:4/4
L:1/8
|:g|fd ec dB Bg|fa ea cA Ag|fd ec dB bg|fe dc dB Bg|
fd ec dB Bg|fa ea cA Ag|fd ec dB bg|fe dc dB Bg|
fg af eb ag|fd ed cA Ag|fg af ea ^ga|fd ec dB Bg|
fg af eb ag|fd ed cA Ac|dB ec fd bg|fe dc dB B:|
